X:1
T:Title
%%score 1 2 3
L:1/8
M:3/2
K:C
V:1 treble nm="Part_1"
V:2 treble-8 nm="Part_2"
V:3 treble-8 nm="Part_3"
V:1
 z4 z4 c4 | c4 A4 G4 | A2 G2 c4 B4- | B2 G2 A2 GF E4 | F2 G6 A2 B2 | c2 d3 c c4 B2 | c4 z4 G4 | %7
 E4 G3 F D4 | C4 z2 c2 B2 c2 | d2 f2 e4 c2 d2- | dc A2 G2 c2 B2 AA- | AG E2 D2 G4 F2 | %12
 G4 z2 G2 G2 G2 | E4 z2 C2 E2 E2 | G4 z2 G2 A2 G2 | c4 B4 z4 | e6 d2 e4 | f2 e3 d c3 A B2 | %18
 c6 BA G4 | z2 G2 A2 G2 E3 F | G2 A3 G G4 F2 | G4 z2 G2 A2 GF | E4 D4 z2 D2 | D4 E4 D2 F2- | %24
 F2 F2 G4 A2 B2 | c2 (3:2:2d4 c2 c4 B2 |[M:4/2] c16 |] %27
V:2
[K:F] z4 z4 c4 | c4 f4 e4 | c4 e2 f2 g2 fe | d4 c8 | A2 G2 c6 d2 | e2 f2 g2 e2 d4 | c12 | z12 | %8
 g4 e4 g2 f2 | d4 c4 z2 f2 | e2 f2 g2 e2 d4 | c4 G2 B2 A4 | G8 z2 g2 | g2 g2 e4 z2 c2 | %14
 e2 e2 g4 z2 c2 | e2 f2 g2 fe d4 | c4 z4 g4 | f2 g4 e2 d4 | c12- | c4 z2 e2 g2 g2 | %20
 e2 c2 d2 B2 A4 | G8 z2 c2 | c2 c2 =B8 | z2 B2 c2 G2 B2 c2 | A4 G2 c4 d2 | c2 f4 e2 d4 | %26
[M:4/2] c16 |] %27
V:3
 z4 z4 c4 | A4 F4 C4 | z2 c2 c2 A2 G4- | G4 z2 C2 C2 E2 | D2 E2 C4 F2 D2 | C2 _B,4 C2 G4 | %6
 z2 C2 F2 E2 C4 | c3 B/A/ G2 c4 B2 | c6 BA G2 A2 | B4 z2 c2 A2 B2 | c2 d2 G2 z2 G2 DE | %11
 FE C2 G4 D4 | z2 E2 E2 E2 C4- | C4 c4 c4 | z2 c2 c2 B2 c4 | A4 G8 | z2 C2 C2 B,2 C2 E2 | %17
 D2 C2 c4 G4 | z2 C2 F2 F2 E2 C2 | C4 c4 z2 C2 | C2 F4 G2 D4 | z2 E2 E2 C2 F2 E2 | C4 z2 G2 G2 G2 | %23
 G4 C4 G2 C2 | D4 E2 C2 FA G2 | A2 B4 c2 G4 |[M:4/2] C16 |] %27

